packages/ui-icons/src/Basic/24/Archive_24.svg

<svg xmlns="http://www.w3.org/2000/svg" viewBox="0 0 32 32"><path d="M6 12.85V27h20V12.85l2.22 2.77 1.56-1.25L25.48 9H23V5H9v4H6.52l-4.3 5.38 1.56 1.25ZM11 7h10v2H11Zm-3 4h16v14H8Z"/><path d="M11 15a5 5 0 0 0 10 0v-1H11Zm7.83 1a3 3 0 0 1-5.66 0Z"/></svg>

<svg id="Ready" xmlns="http://www.w3.org/2000/svg" viewBox="0 0 32 32"><title>Megaicons_work_24_1.8_cp</title><path d="M6,12.85V27H26V12.85l2.22,2.77,1.56-1.25L25.48,9H23V5H9V9H6.52l-4.3,5.38,1.56,1.25ZM11,7H21V9H11ZM8,11H24V25H8Z"/><path d="M11,15a5,5,0,0,0,10,0V14H11Zm7.83,1a3,3,0,0,1-5.66,0Z"/></svg>
